X:1
T:Are You Washed in the Blood?
T:Elisha Albright Hoffman, 1878
T:Are You Washed in the Blood?
T:Public Domain
T:Public Domain
C:Elisha Albright Hoffman, 1878
Z:Public Domain
%%score 1 ( 2 3 )
L:1/8
M:4/4
K:Ab
V:1 treble 
V:2 bass 
V:3 bass 
V:1
 [A,C][CE] | [CA]2 [CA]2 [CA][CE][A,C][CE] | [CA]2 [DA]2 [CA]2 [EA][EB] | %3
w: 1.~Have you|been to Je- sus for the|cleans- ing power? Are you|
w: 2.~Are you|walk- ing dai- ly by the|Sav- ior’s side? Are you|
w: 3.~When the|Bride- groom com- eth will your|robes be white? Are you|
w: 4.~Lay a-|side the gar- ments that are|stained with sin, And be|
 [Ec]2 [Ec][Ec] [Ec]2 [EB][=DA] | [EB]6 [Ec][DB] | [CA]2 [CA]2 [CA][Ec][EB][EA] | %6
w: washed in the blood of the|Lamb? Are you|ful- ly trust- ing in His|
w: washed in the blood of the|Lamb? Do you|rest each mo- ment in the|
w: washed in the blood of the|Lamb? Will your|soul be rea- dy for the|
w: washed in the blood of the|Lamb; There’s a|foun- tain flow- ing for the|
 [DF]2 [DF]2 [DF]2 [DF][DF] | [CE]2 [CE][CE] [EA]2 [DG][DG] | [CA]6 ||"^Refrain" [Ec][DB] | %10
w: grace this hour? Are you|washed in the blood of the|Lamb?||
w: Cru- ci- fied? Are you|washed in the blood of the|Lamb?|Are you|
w: man- sions bright, And be|washed in the blood of the|Lamb?||
w: soul un- clean, O be|washed in the blood of the|Lamb!||
 [CA]6 [CA][EG] | [DF]6 [EG][DF] | [CE]2 [EA][EB] [Ec]2 [Ed][Ec] | [EB]6 [Ec][DB] | %14
w: ||||
w: washed in the|blood, In the|soul cleans- ing blood of the|Lamb? Are your|
w: ||||
w: ||||
 [CA]2 [CA]2 [CA][Ec] | [EB][EA] | [DF]2 [DF]2 [DF]2 [DF][DF] | [CE]2 [CE][CE] [EA]2 [DG][DG] | %18
w: ||||
w: gar- ments spot- less?|Are they|white as snow? Are you|washed in the blood of the|
w: ||||
w: ||||
 [CA]6 |] %19
w: |
w: Lamb?|
w: |
w: |
V:2
 [A,,E,][A,,E,] | [A,,E,]2 [A,,E,]2 [A,,E,][A,,A,][A,,A,][A,,A,] | %2
w: ~ ~|~ ~ ~ ~ ~ ~|
 [A,,A,]2 [D,F,]2 [A,,E,]2 [C,A,][E,G,] | A,2 A,A, A,2 [G,B,][F,B,] | [E,G,]6 [E,A,]E, | %5
w: ~ ~ ~ ~ ~|~ ~ ~ ~ ~ ~|~ ~ ~|
 [A,,E,]2 [A,,E,]2 [A,,E,][A,,A,][B,,G,][C,A,] | [D,A,]2 [D,A,]2 [D,A,]2 [D,A,][D,A,] | %7
w: ~ ~ ~ ~ ~ ~|~ ~ ~ ~ ~|
 [E,A,]2 [E,A,][E,A,] [E,C]2 [E,B,][E,B,] | [A,,A,]6 || z2 | z2 [A,,A,][A,,A,] [A,,A,]2 z2 | %11
w: ~ ~ Are you washed in|the||blood ~ ~|
 z2 [D,A,][D,A,] [D,A,]2 [D,A,][D,A,] | [A,,A,]2 [C,A,][E,G,] A,2 [G,B,]A, | %13
w: ~ ~ ~ ~ ~|~ ~ of the Lamb? *|
 [E,G,]2 [E,G,][E,G,] [E,G,]2 [E,A,]E, | [A,,E,]2 [A,,E,]2 [A,,E,][A,,A,] | [B,,G,][C,A,] | %16
w: |||
 [D,A,]2 [D,A,]2 [D,A,]2 [D,A,][D,A,] | [E,A,]2 [E,A,][E,A,] [E,C]2 [E,B,][E,B,] | [A,,A,]6 |] %19
w: |||
V:3
 x2 | x8 | x8 | A,2 A,A, A,2 x2 | x7 E, | x8 | x8 | x8 | x6 || x2 | x8 | x8 | x4 A,2 A, x | x7 E, | %14
w: |||~ ~ ~ ~|~||||||||||
 x6 | x2 | x8 | x8 | x6 |] %19
w: |||||

